X:18
T:Round the Horne
C:
S:from the playing of Kenny Baker
M:4/4
L:1/8
Q:180
K:G
(3DEF|G2G>A B>A G>A|B>^c  d>e d4| c2 c>d e2 g2 |a6 g>a|b2 g2 a>g f2|g>a
 g>e d>B G>B|A2 d2 B>A G2|1E6:|2E8||
^d e3 e2 =d2|B6 B>B| A2 A>A G2 A2| B>d d>e d4 |g2 g>a g2 e2| d>e d>c B>
A
 G>B|A2 d2 B>A G2|E8:|
